!!!OTL: VOM HIMMEL HOCH IHR ENGEL KOMMT
!!!ARE: Europa, Mitteleuropa, Deutschland
!!!SCT: E1938
!!!YEM: Copyright 1995, estate of Helmut Schaffrath.
**kern
*ICvox
*Ivox
*M3/4
*k[b-]
*F:
{4a
=1
4a
4g
4f
=2
2cc
4a
=3
4f
4g
4a
=4
2.f}
=5
{2.cc
=6
2.a
=7
2.cc
=8
2.a}
=9
{4f
4g
4a
=10
4cc
4b-
4a
=11
2f
4e
=12
2f}
{4cc
=13
2cc
4b-
=14
2a
4dd
=15
4cc
4b-
4a
=16
2g}
{4cc
=17
4g
4a
4b-
=18
2cc
4f
=19
2f
4e
=20
2f}
{4b-
=21
4b-
4a
4g
=22
4a
4b-
4cc
=23
2a
4g
=24
2f}
==
!!!AGN: geistlich, Fest - Lied, Weihnachten
!!!ONB: ESAC (Essen Associative Code) Database: ERK3
!!!AMT: simple triple
!!!AIN: vox
!!!EED: Helmut Schaffrath
!!!EEV: 1.0
*-
